packages/nextjs/public/logos/ptsusde.svg

<svg width="38" height="38" viewBox="0 0 38 38" fill="none" xmlns="http://www.w3.org/2000/svg">
<path d="M18.509 0.33427H18.5097C28.547 0.33427 36.6839 8.47114 36.6839 18.5085V18.5092C36.6839 28.5465 28.547 36.6834 18.5097 36.6834H18.509C8.47163 36.6834 0.334758 28.5465 0.334758 18.5092V18.5085C0.334758 8.47114 8.47163 0.33427 18.509 0.33427Z" fill="white" stroke="black" stroke-width="0.669516"/>
<path fill-rule="evenodd" clip-rule="evenodd" d="M15.5399 3.27808C8.39526 4.65425 2.99841 10.94 2.99841 18.4863C2.99841 26.0326 8.39526 32.3184 15.5399 33.6945V32.243C9.18622 30.8886 4.4208 25.2439 4.4208 18.4863C4.4208 11.7287 9.18622 6.08404 15.5399 4.72965V3.27808ZM21.46 4.73534V3.28322C28.5914 4.66984 33.9748 10.9494 33.9748 18.4863C33.9748 26.0232 28.5914 32.3028 21.46 33.6894V32.2373C27.8003 30.8728 32.5524 25.2345 32.5524 18.4863C32.5524 11.7381 27.8003 6.09978 21.46 4.73534Z" fill="black"/>
<path d="M20.6933 17.969C21.8751 18.1942 22.7917 18.6285 23.4432 19.272C24.0947 19.8994 24.4204 20.7038 24.4204 21.6851V23.2295C24.4204 24.4038 23.9962 25.353 23.1477 26.0769C22.2993 26.7848 21.1857 27.1387 19.807 27.1387H19.3298V29.6H17.6935V27.1387H17.1936C16.2845 27.1387 15.4815 26.9376 14.7846 26.5354C14.0877 26.1171 13.5423 25.538 13.1483 24.798C12.7696 24.0419 12.5802 23.1732 12.5802 22.1919H14.2165C14.2165 23.1893 14.4892 24.0017 15.0346 24.6291C15.5952 25.2404 16.33 25.546 17.239 25.546H19.7616C20.6555 25.546 21.3751 25.3369 21.9205 24.9186C22.466 24.4843 22.7387 23.9212 22.7387 23.2295V21.6851C22.7387 21.1381 22.5341 20.6716 22.1251 20.2855C21.7312 19.8994 21.1857 19.6501 20.4888 19.5375L16.3982 18.8135C15.2467 18.6044 14.3528 18.17 13.7165 17.5105C13.0802 16.8509 12.762 16.0224 12.762 15.025V13.7219C12.762 12.5476 13.1711 11.6145 13.9892 10.9228C14.8225 10.2149 15.9209 9.861 17.2845 9.861H17.6935V7.39966H19.3298V9.861H19.8525C21.1403 9.861 22.1781 10.2793 22.9659 11.1158C23.7538 11.9363 24.1477 13.0221 24.1477 14.3735H22.5114C22.5114 13.4887 22.269 12.7808 21.7842 12.25C21.2994 11.7191 20.6555 11.4536 19.8525 11.4536H17.2845C16.4209 11.4536 15.7315 11.6628 15.2164 12.081C14.7013 12.4832 14.4437 13.0302 14.4437 13.7219V15.025C14.4437 15.5881 14.6331 16.0626 15.0119 16.4487C15.4058 16.8348 15.9436 17.0922 16.6254 17.2209L20.6933 17.969Z" fill="black"/>
<circle cx="18.5" cy="18.5" r="17.5" stroke="#1BE3C2" stroke-width="2"/>
</svg>

<svg width="38" height="38" viewBox="0 0 38 38" fill="none" xmlns="http://www.w3.org/2000/svg"><path d="M18.509.334c10.038 0 18.175 8.137 18.175 18.175S28.547 36.683 18.51 36.683h-.001C8.472 36.683.335 28.547.335 18.51S8.472.334 18.509.334Z" fill="#fff" stroke="#000" stroke-width=".67"/><path fill-rule="evenodd" clip-rule="evenodd" d="M15.54 3.278C8.395 4.654 2.998 10.94 2.998 18.486c0 7.547 5.397 13.832 12.542 15.208v-1.451c-6.354-1.354-11.12-7-11.12-13.757S9.187 6.084 15.54 4.73V3.278Zm5.92 1.457V3.283c7.131 1.387 12.515 7.666 12.515 15.203 0 7.537-5.384 13.817-12.515 15.203v-1.452c6.34-1.364 11.092-7.003 11.092-13.75 0-6.749-4.752-12.387-11.092-13.752Z" fill="#000"/><path d="M20.693 17.969c1.182.225 2.099.66 2.75 1.303.652.627.977 1.432.977 2.413v1.545c0 1.174-.424 2.123-1.272 2.847-.849.708-1.962 1.062-3.341 1.062h-.477V29.6h-1.636v-2.461h-.5c-.91 0-1.712-.201-2.41-.604a4.387 4.387 0 0 1-1.636-1.737c-.378-.756-.568-1.625-.568-2.606h1.636c0 .997.273 1.81.819 2.437.56.611 1.295.917 2.204.917h2.523c.893 0 1.613-.21 2.159-.627.545-.435.818-.998.818-1.69v-1.544c0-.547-.205-1.013-.614-1.4-.394-.386-.94-.635-1.636-.747l-4.09-.724c-1.152-.21-2.046-.644-2.683-1.303-.636-.66-.954-1.489-.954-2.486v-1.303c0-1.174.41-2.107 1.227-2.8.833-.707 1.932-1.061 3.296-1.061h.409V7.4h1.636v2.46h.523c1.287 0 2.325.418 3.113 1.255.788.82 1.182 1.906 1.182 3.258H22.51c0-.885-.242-1.593-.727-2.124-.485-.53-1.128-.796-1.931-.796h-2.569c-.863 0-1.552.209-2.068.627-.515.402-.772.95-.772 1.64v1.304c0 .563.19 1.038.568 1.424.394.386.932.643 1.613.772l4.068.748Z" fill="#000"/><circle cx="18.5" cy="18.5" r="17.5" stroke="#1BE3C2" stroke-width="2"/></svg>
